src/lib/packages/icons/src/assets/filled/dollar-send-square.svg

<svg width="24" height="24" viewBox="0 0 24 24" fill="none" xmlns="http://www.w3.org/2000/svg">
<path d="M21.53 4.53002C21.384 4.67602 21.192 4.74999 21 4.74999C20.808 4.74999 20.616 4.67702 20.47 4.53002L19.75 3.81005V6.99999C19.75 7.41399 19.414 7.74999 19 7.74999C18.586 7.74999 18.25 7.41399 18.25 6.99999V3.81103L17.53 4.531C17.237 4.824 16.762 4.824 16.469 4.531C16.176 4.238 16.176 3.76296 16.469 3.46996L18.469 1.46996C18.538 1.40096 18.621 1.34598 18.713 1.30798C18.896 1.23198 19.103 1.23198 19.286 1.30798C19.378 1.34598 19.461 1.40096 19.53 1.46996L21.53 3.46996C21.823 3.76296 21.823 4.23702 21.53 4.53002ZM21 9.48596V17.62C21 19.87 19.85 21 17.62 21H6.38C4.1 21 3 19.87 3 17.62V6.38C3 4.12 4.1 2.99999 6.38 2.99999H14.514C14.73 2.99999 14.864 3.21596 14.788 3.41796C14.499 4.18496 14.413 5.05595 14.601 5.95995C14.956 7.66495 16.335 9.04502 18.039 9.40002C18.944 9.58902 19.815 9.50301 20.583 9.21301C20.784 9.13701 21 9.27096 21 9.48596ZM14.972 14.017C14.972 12.815 14.157 11.769 12.986 11.473L11.378 11.074C11.13 11.012 10.919 10.873 10.76 10.67C10.61 10.48 10.527 10.236 10.527 9.98498C10.527 9.36598 11.03 8.86303 11.649 8.86303H12.349C12.921 8.86303 13.4 9.29303 13.465 9.86303C13.511 10.275 13.879 10.575 14.294 10.525C14.706 10.479 15.002 10.108 14.956 9.69604C14.821 8.49204 13.888 7.56494 12.722 7.39794V6.99999C12.722 6.58599 12.386 6.24999 11.972 6.24999C11.558 6.24999 11.222 6.58599 11.222 6.99999V7.40502C9.97998 7.61102 9.02802 8.685 9.02802 9.984C9.02802 10.571 9.22499 11.145 9.57999 11.593C9.93599 12.052 10.444 12.3839 11.014 12.5279L12.622 12.927C13.123 13.054 13.473 13.502 13.473 14.016C13.473 14.314 13.356 14.595 13.143 14.808C12.93 15.021 12.649 15.1379 12.351 15.1379H11.651C11.079 15.1379 10.6 14.7079 10.535 14.1379C10.489 13.7259 10.114 13.4239 9.70599 13.4759C9.29399 13.5219 8.99801 13.893 9.04401 14.305C9.17701 15.492 10.085 16.413 11.228 16.598V17C11.228 17.414 11.564 17.75 11.978 17.75C12.392 17.75 12.728 17.414 12.728 17V16.602C13.283 16.521 13.798 16.275 14.203 15.87C14.699 15.373 14.972 14.715 14.972 14.017Z" fill="currentColor"/>
</svg>

<svg xmlns="http://www.w3.org/2000/svg" width="24" height="24" fill="none"><path fill="currentColor" d="M21.53 4.53a.748.748 0 0 1-1.06 0l-.72-.72V7a.75.75 0 0 1-1.5 0V3.811l-.72.72a.75.75 0 1 1-1.061-1.061l2-2a.749.749 0 0 1 .817-.162.749.749 0 0 1 .244.162l2 2a.75.75 0 0 1 0 1.06ZM21 9.486v8.134c0 2.25-1.15 3.38-3.38 3.38H6.38C4.1 21 3 19.87 3 17.62V6.38C3 4.12 4.1 3 6.38 3h8.134c.216 0 .35.216.274.418a4.545 4.545 0 0 0-.187 2.542 4.49 4.49 0 0 0 3.438 3.44 4.534 4.534 0 0 0 2.544-.187c.201-.076.417.058.417.273Zm-6.028 4.531a2.623 2.623 0 0 0-1.986-2.544l-1.608-.399a1.121 1.121 0 0 1 .271-2.211h.7c.572 0 1.051.43 1.116 1a.75.75 0 1 0 1.491-.167 2.616 2.616 0 0 0-2.234-2.298V7a.75.75 0 0 0-1.5 0v.405a2.62 2.62 0 0 0-2.194 2.579c0 .587.197 1.161.552 1.609.356.459.864.79 1.434.935l1.608.399c.501.127.851.575.851 1.089 0 .298-.117.579-.33.792-.213.213-.494.33-.792.33h-.7c-.572 0-1.051-.43-1.116-1a.75.75 0 1 0-1.491.167 2.617 2.617 0 0 0 2.184 2.293V17a.75.75 0 0 0 1.5 0v-.398a2.607 2.607 0 0 0 2.244-2.585Z"/></svg>
